X: 16379
T: Gusty's Frolics
R: slip jig
M: 9/8
K: Dmajor
|:D(3DDD D(3DDD ~F2{B}A|D(3DDD FAF GFE|D(3DDD D(3DDD ~F2{B}A|GFG E(3.c.AE GFE:|
|:FDF ABF A2 G|FDF ABF GFE|FDF ABF A2 f|gfg ece GFE:|
|:d(3.G.F.d d(3.G.F.d ~f2a|d(3.G.F.d (3.f.c.Af gfe|d(3.G.F.d d(3.G.F.d ~f2a|gfg (3.f.c.Af gfe:|
|:d(3.G.F.d c(3.G.F.c d2B|AFA D(3DDD D(3DDD|BDD cDD Bzf|gfg (3.e.c.Af gfe:|

